libs/sistema/glyphs/chat.svg

<svg width="24" height="24" viewBox="0 0 24 24" xmlns="http://www.w3.org/2000/svg">
<path fill-rule="evenodd" clip-rule="evenodd" d="M4.66667 16.3906V15.3333H4C3.63267 15.3333 3.33333 15.0346 3.33333 14.6666V6.6666C3.33333 6.2986 3.63267 5.99993 4 5.99993H17.3333C17.7007 5.99993 18 6.2986 18 6.6666V9.99993H19.3333V6.6666C19.3333 5.56393 18.436 4.6666 17.3333 4.6666H4C2.89733 4.6666 2 5.56393 2 6.6666V14.6666C2 15.5359 2.55733 16.2773 3.33333 16.5526V19.6093L6.276 16.6666H11.3333V15.3333H5.724L4.66667 16.3906Z" />
<path fill-rule="evenodd" clip-rule="evenodd" d="M20.6666 16C20.6666 16.368 20.3673 16.6667 20 16.6667H19.3333V17.724L18.276 16.6667H14.6666C14.2993 16.6667 14 16.368 14 16V13.3333C14 12.9653 14.2993 12.6667 14.6666 12.6667H20C20.3673 12.6667 20.6666 12.9653 20.6666 13.3333V16ZM20 11.3333H14.6666C13.564 11.3333 12.6666 12.2307 12.6666 13.3333V16C12.6666 17.1027 13.564 18 14.6666 18H17.724L20.6666 20.9427V17.886C21.4426 17.6107 22 16.8693 22 16V13.3333C22 12.2307 21.1026 11.3333 20 11.3333Z" />
</svg>

<svg xmlns="http://www.w3.org/2000/svg" width="24" height="24" viewBox="0 0 24 24">
  <path fill-rule="evenodd" d="M4.667 16.39v-1.057H4a.667.667 0 0 1-.667-.666v-8c0-.368.3-.667.667-.667h13.333c.368 0 .667.299.667.667V10h1.333V6.667c0-1.103-.897-2-2-2H4c-1.103 0-2 .897-2 2v8c0 .869.557 1.61 1.333 1.886v3.056l2.943-2.942h5.057v-1.334H5.724l-1.057 1.058Z" clip-rule="evenodd"/>
  <path fill-rule="evenodd" d="M20.666 16a.667.667 0 0 1-.666.667h-.667v1.057l-1.057-1.057h-3.61A.667.667 0 0 1 14 16v-2.667c0-.368.3-.666.666-.666H20c.367 0 .666.298.666.666V16ZM20 11.333h-5.334c-1.102 0-2 .898-2 2V16c0 1.103.898 2 2 2h3.058l2.942 2.943v-3.057A2.004 2.004 0 0 0 22 16v-2.667c0-1.102-.898-2-2-2Z" clip-rule="evenodd"/>
</svg>
